!!!COM: Music21
!!!OTL: Muiñeira de Cartelle
!!!OMV: pezas_muineiras_muineira-de-cartelle_muineira-de-cartelle-partitura.musicxml
**kern
*part1
*staff1
*I"Bagpipes
*I'Bag
*clefG^2
*k[]
*M6/8
=1
!LO:TX:a:t=Presto
*MM180
!LO:TX:a:t=[quarter]=180
4.r
4ccc
8bb
=||
8ggL
8aa
8ggJ
8ffL
8ee
8ffJ
=
8ggL
8aa
8ggJ
4ee
8ff
=
[2.gg
=
4.gg]
4ccc
8bb
=
8ggL
8aa
8ggJ
8ffL
8ee
8ffJ
=
8ggL
8aa
8ggJ
4dd
8ee
=
[2.cc
!!linebreak:original
=
4.cc]
4ccc
8bb
=||
8ggL
8aa
8ggJ
8ffL
8ee
8ffJ
=
8ggL
8aa
8ggJ
4ee
8ff
=
[2.gg
=
4.gg]
4ccc
8bb
=
8ggL
8aa
8ggJ
8ffL
8ee
8ffJ
!!linebreak:original
=
8ggL
8aa
8ggJ
4dd
8ee
=||
[2.cc
=
4.cc]
8ddL
8ee
8ffJ
=||
4gg
8gg
8ggL
8ff
8aaJ
=
4.gg
8ddL
8ee
8ffJ
=
4gg
8gg
8ggL
8ff
8aaJ
=
4.gg
8ddL
8ee
8ffJ
=
4gg
8aa
4gg
8ff
!!linebreak:original
=
8eeL
8dd
8ccJ
8ddL
8ee
8ddJ
!!linebreak:original
=
[2.cc
=
4.cc]
8ddL
8ee
8ffJ
=||
4gg
8gg
8ggL
8ff
8aaJ
=
4.gg
8ddL
8ee
8ffJ
=
4gg
8gg
8ggL
8ff
8aaJ
=
4.gg
8ddL
8ee
8ffJ
=
4gg
8aa
4gg
8ff
=
8eeL
8dd
8ccJ
8ddL
8ee
8ddJ
=
[2.cc
!!linebreak:original
=
4.cc]
4ccc
8bb
=||
[2.cc
=
2.cc]
==
*-
!!!system-decoration: s1,s2
